!! 00000] TT[WS
!!!OTL: Guo nian
!!!ARE: Asia, China,ÿShanxi Linxian
!! Ethnic Group: Han
!! WI, 236
!!!SCT: J0281
!!!YEM: Copyright 1995, estate of Helmut Schaffrath.
**kern
*ICvox
*Ivox
*M2/4
*k[b-e-]
*B-:
{4cc
8cc
8ff
=1
8dd
8cc
8b-
8g
=2
4cc
8cc
8ff
=3
8dd
8b-
4cc}
=4
{8dd
16dd
16cc
8dd
16dd
16cc
=5
8b-
8cc
8b-
8g
=6
8b-
16b-
16cc
8b-
8g
=7
8ff
8d
4f}
=8
{8.g
16b-
8cc
16dd
16cc
=9
8b-
16b-
16cc
8b-
8g
=10
8f
8d
4f}
==
!!!AGN: Xiaodiao. Fengsuge
!!!ONB: ESAC (Essen Associative Code) Database: CHINA
!!!AMT: simple duple
!!!AIN: vox
!!!EED: Helmut Schaffrath
!!!EEV: 1.0
*-
